X:2558
L:1/8
M:2/2
K:C
 G2- |:S GAcG AcGA | cGAc- cGAc | [dg]4- ([d-g][da]) ([d-g][da]) | [dg]4- [dg][da]ge | GAcG AcGA | 
 cGAc- cGAc | g2 ag- g(d e2) |1 [ce]4- [ce]dcA :|2 c6- c |: (d |[M:2/2] e) g3- gagd | ec(dc-) c4 | 
 ([f-g][fa]-) [fa]2- [fa]bab | (gab)g (a g3) | !slide!c'4- c'3 d' | c'3 d' c'3 d' | 
 (c'2 a2) g2 (ag-) |1[M:3/2] g(de)d c4- c3 :|2 g(de)d c3 d cAS ||

